X: 193
T:Sommarvals
C:composed by Ale Moller
T:Sensommarvals  ( By;Ale MÃ¶ller)
F:http://blackrosetheband.googlepages.com/ABCTUNES.ABC May 2009
M:3/4
L:1/8
R:waltz
K:Gmaj
|:d2c2|"G"B3A G2|"D"A4F2|"Em"G6|"C"E3FE2|"G"D2G2A2|"C"c4B2|B2A2G2|"D"A2d3c|
"G"B3A G2|"D"A4F2|"Em"G6|"C"E3FE2|"G"D2E2G2|"D"G4F2|"G"G6|G2:||
|:F2G2|"D"A3AA2|A2F2D2|"Am"c6|"G"B3AG2|"C"E2ABc2|"D"d3cBA|"G"G2F2G2|"Am"A2B3A|
"G"G3AG2|"D"F3GF2|"C"E3FE2|"G"D2G2A2|1B3AG2|"D"A2d2F2|"C"G6|"G"G2:|2"C"c3BAG|"D"A2d2F2|"G"G6|G2||

